svg/set/ALA/R.svg

<?xml version="1.0" encoding="UTF-8" standalone="no"?>
<svg xmlns="http://www.w3.org/2000/svg" xmlns:xlink="http://www.w3.org/1999/xlink" version="1.1" width="600" height="652.91907">
  <linearGradient x1="0" y1="0" x2="1" y2="0" id="linearGradient758" gradientUnits="userSpaceOnUse" gradientTransform="matrix(27.200409,19.045929,19.045929,-27.200409,153.07129,25.361328)" spreadMethod="pad">
    <stop style="stop-color:#8b723c" offset="0"/>
    <stop style="stop-color:#d2bb7b" offset="0.3"/>
    <stop style="stop-color:#ebd491" offset="0.5"/>
    <stop style="stop-color:#d2bb7b" offset="0.7"/>
    <stop style="stop-color:#8b723c" offset="1"/>
  </linearGradient>
  <linearGradient x1="0" y1="0" x2="1" y2="0" id="linearGradient2995" xlink:href="#linearGradient758" gradientUnits="userSpaceOnUse" gradientTransform="matrix(27.200409,19.045929,19.045929,-27.200409,153.07129,25.361328)" spreadMethod="pad"/>
  <linearGradient x1="0" y1="0" x2="1" y2="0" id="linearGradient2998" xlink:href="#linearGradient758" gradientUnits="userSpaceOnUse" gradientTransform="matrix(443.99166,-310.88626,310.88626,443.99166,77.995919,481.88158)" spreadMethod="pad"/>
  <path d="M 558.36008,469.15501 600,316.51885 557.98466,183.43762 300,0 42.015344,183.43762 0,316.51885 41.574623,469.15501 300,652.91909 558.36008,469.15501 z"/>
  <path d="m 243.13075,152.65248 0,347.56516 56.86925,113.7385 56.86925,-113.7385 0,-347.56516 L 300,38.89765 243.13075,152.65248 z m 157.9248,-12.63398 0,372.8168 -37.8693,63.82284 94.82017,-70.71114 0,-359.04021 -94.82017,-70.71113 37.8693,63.82284 z m -259.06197,6.88829 0,359.04021 94.82017,70.71114 -37.93459,-63.82284 0,-372.8168 37.93459,-63.82284 -94.82017,70.71113 z m 360.19914,334.37619 37.9346,-25.31693 37.86931,-139.00648 -37.86931,-120.0555 -37.9346,-25.25164 0,309.63055 z M 59.872681,196.90407 l -37.934599,120.0555 37.934599,139.00648 37.869307,25.31693 0,-309.63055 -37.869307,25.25164 z" style="fill:url(#linearGradient2998)"/>
</svg>

<?xml version="1.0" encoding="UTF-8" standalone="no"?>
<svg
   version="1.1"
   width="600"
   height="652.91907"
   id="svg6"
   xmlns:xlink="http://www.w3.org/1999/xlink"
   xmlns="http://www.w3.org/2000/svg"
   xmlns:svg="http://www.w3.org/2000/svg">
  <defs
     id="defs6" />
  <linearGradient
     x1="0"
     y1="0"
     x2="1"
     y2="0"
     id="linearGradient758"
     gradientUnits="userSpaceOnUse"
     gradientTransform="matrix(27.200409,19.045929,19.045929,-27.200409,153.07129,25.361328)"
     spreadMethod="pad">
    <stop
       style="stop-color:#8b723c"
       offset="0"
       id="stop1" />
    <stop
       style="stop-color:#d2bb7b"
       offset="0.3"
       id="stop2" />
    <stop
       style="stop-color:#ebd491"
       offset="0.5"
       id="stop3" />
    <stop
       style="stop-color:#d2bb7b"
       offset="0.7"
       id="stop4" />
    <stop
       style="stop-color:#8b723c"
       offset="1"
       id="stop5" />
  </linearGradient>
  <linearGradient
     x1="0"
     y1="0"
     x2="1"
     y2="0"
     id="linearGradient2995"
     xlink:href="#linearGradient758"
     gradientUnits="userSpaceOnUse"
     gradientTransform="matrix(27.200409,19.045929,19.045929,-27.200409,153.07129,25.361328)"
     spreadMethod="pad" />
  <linearGradient
     x1="0"
     y1="0"
     x2="1"
     y2="0"
     id="linearGradient2998"
     xlink:href="#linearGradient758"
     gradientUnits="userSpaceOnUse"
     gradientTransform="matrix(443.99166,-310.88626,310.88626,443.99166,77.995919,481.88158)"
     spreadMethod="pad" />
  <path
     d="M 558.36008,469.15501 600,316.51885 557.98466,183.43762 300,0 42.015344,183.43762 0,316.51885 41.574623,469.15501 300,652.91909 Z"
     id="path5" />
  <path
     d="M 243.13075,152.65248 V 500.21764 L 300,613.95614 356.86925,500.21764 V 152.65248 L 300,38.89765 Z m 157.9248,-12.63398 v 372.8168 l -37.8693,63.82284 94.82017,-70.71114 V 146.90679 L 363.18625,76.19566 Z m -259.06197,6.88829 V 505.947 l 94.82017,70.71114 -37.93459,-63.82284 V 140.0185 l 37.93459,-63.82284 z m 360.19914,334.37619 37.9346,-25.31693 37.86931,-139.00648 -37.86931,-120.0555 -37.9346,-25.25164 z M 59.872681,196.90407 21.938082,316.95957 59.872681,455.96605 97.741988,481.28298 V 171.65243 Z"
     style="fill:url(#linearGradient2998)"
     id="path6" />
</svg>
